X:1
T:Maulgré moy vis
R:Chanson
C:Tielman Susato
H:1544
N:compatible Abc2midi & Abcm2ps
N:vérifié le 15 mai 2002
A:Anvers
B:Premier livre des chansons
%O:Flandres
Z: Eric Forgeot - http://anamnese.online.fr
M:C|
L:1/4
Q:1/4=100
K:C
%%staves [1 | 2 | 3]
V:1 nm="S."
V:2 nm="A."
V:3 nm="Bar."
%%abc2pscompat
%%measurenb 0
%%staffsep 58pt
%%indent 50
V:1
%%MIDI channel 1
%%MIDI program 60       % General MIDI french horn
%%MIDI transpose 0
%%MIDI control 7 110 %volume
%%MIDI control 10 100 %pan
%%freegchord 1
"(Chantez a deux si bon vous semble, Puis chanterez tous troix ensemble.)"
z4 | A3A | B2A2 | zEGA | c3B | A2 zE | GAc2 |
BA2G-|G/ F/ DE2 | z D F>E | D2 z A |
BAA2 | zA d2-|d cBA | GAc2-|
c BA^G | A4 | zccc | BAc>B |
G/  A/  BAF | FFE2 | DF>E C | z/  E/  G>F D/  E/  |
FEzD | DCDF | FGF E/ D/  | E2E2 |
zAA2 | G2Ac-|c cd>c | B/ A/  A2 ^G | 
A2 zA | AAcG | BA>GF-|FED2 | H^C4 |] 
V:2
%%MIDI channel 2
%%MIDI program 69       % General MIDI english horn
%%MIDI transpose 0
%%MIDI control 7 110 %volume
%%MIDI control 10 30 %pan
K:C treble
A,>B, CD-|D C/ B,/ CD-|DEF3/2 E/4D/4 |
C>DED | z A,CD | F3E | EA, A,/ B,/ C/ D/  |
E/ D/  F2 E-|E/ D/  D2 ^C | D2 zA | BAAD-|
D F2 E/ D/  | EDDD | G3F | EDCA, |
E>D CB, | A,2 zF | FFE2 | DF>E C/  D/  | 
E D/ E/  F/ G/  A | z ccc | B A c>B | G/ A/  B2 A-|
AGF2 | E2 zD | DCDA, | A,G,A,C-|
C CDC | B,B,A, E-|EEF>E | DCB,2 |
A,DDD | F2 CE | D>CA,D-|DEF2 | HE4 |]
V:3
%%MIDI channel 3
%%MIDI program 70       % General MIDI bassoon
%%MIDI transpose -24
%%MIDI control 7 110 %volume
%%MIDI control 10 65 %pan
%%freegchord 1
%%clef=bass
"(Veulx tu chanter par bon advis, Attens que tu en soys requis.)"
K:C bass
a2 ab | a3 d | ggf>g |
a3/2 g/4f/4 e f-|f/ e/ f/ g/  a d | d/ e/ f/ g/  a2 | gc'>ba |
gfde | cda2 | d2 zd | gfd z/ d/  |
gfd2 | a d'>c'b/ a/  | g>f ga | zd a2-|
agae | f>g af | f/ g/ a/ b/  c'c' | gfa>g | 
e/  f/  gdf | f/ g/ a/ b/  c'c' | gfa>g | e>f g f/ e/  |
def>g | a2 dd | feda | c'baa-|
aadf | ggfa-|aad>e | gaee |
f2dz/ d/  | dd a/ b/  c' | gf>ed-|dcd2 | Ha4 |]
W:Maulgré moy vis et en vivant je meurs, et en vivant je meurs ;
W:De jour en jour, de Jour en jour
W:se changent mes douleurs, (2x)
W:Tant qu'en vivant trop longue m'est la vie,
W:Tant qu'en vivant trop longue m'est, trop longue m'est la vie
W:Mourir je crains et le vivre m'ennuye, (2x)
W:Ainsi me tiens en paine et en langueurs.
%%MIDI transpose 0

%%newpage


